TGeo/prim_xtru_z.svg

<svg viewBox="-600 -400 1200 800" width="1200" height="800" xmlns="http://www.w3.org/2000/svg"><path style="fill:rgb(101,0,0)" d="M0,88l-65,-140l-113,242Z"/><path style="fill:rgb(84,0,0)" d="M279,248l-279,-332v172Z"/><path style="fill:rgb(103,0,0)" d="M0,88v-172l-65,32Z"/><path style="fill:rgb(178,0,0)" d="M357,190l-258,-225l180,283Z"/><path style="fill:rgb(130,0,0)" d="M0,-84v-12l-91,44Z"/><path style="fill:rgb(182,0,0)" d="M357,190l-227,-242l-31,17Z"/><path style="fill:rgb(90,0,0)" d="M279,248l-180,-283l-99,-49Z"/><path style="fill:rgb(130,0,0)" d="M99,-35l-99,-61v12Z"/><path style="fill:rgb(131,0,0)" d="M0,-84l-91,32h26Z"/><path style="fill:rgb(150,0,0)" d="M139,-28l-139,-241v173Z"/><path style="fill:rgb(133,0,0)" d="M99,-35l40,7l-139,-68Z"/><path style="fill:rgb(109,0,0)" d="M0,-269l247,50l-247,-95ZM-123,-219l123,-50v-45Z"/><path style="fill:rgb(170,0,0)" d="M0,-96v-173l-123,50ZM0,-96l-123,-123l32,167Z"/><path style="fill:rgb(166,0,0)" d="M0,456l-130,-508l-227,242Z"/><path style="fill:rgb(111,0,0)" d="M0,-314l-247,95h124Z"/><path style="fill:rgb(135,0,0)" d="M-65,-52h-26l139,74Z"/><path style="fill:rgb(156,0,0)" d="M139,-28l51,-163l-190,-78Z"/><path style="fill:rgb(108,0,0)" d="M181,-52l9,-139l-51,163Z"/><path style="fill:rgb(137,0,0)" d="M-65,-52l113,74l-14,-22Z"/><path style="fill:rgb(115,0,0)" d="M0,-269l190,78l57,-28Z"/><path style="fill:rgb(109,0,0)" d="M181,-52l66,-167l-57,28Z"/><path style="fill:rgb(89,0,0)" d="M0,49l-247,-268l66,167Z"/><path style="fill:rgb(195,0,0)" d="M102,380l-68,-380l-34,18Z"/><path style="fill:rgb(177,0,0)" d="M0,456v-438l-130,-70Z"/><path style="fill:rgb(195,0,0)" d="M102,380l-102,-362v438Z"/><path style="fill:rgb(119,0,0)" d="M-247,-219l247,120l-123,-120Z"/><path style="fill:rgb(94,0,0)" d="M0,49v-148l-247,-120Z"/><path style="fill:rgb(116,0,0)" d="M48,22l-48,-121v148Z"/><path style="fill:rgb(123,0,0)" d="M0,-99l68,-33l-191,-87Z"/><path style="fill:rgb(118,0,0)" d="M48,22l20,-154l-68,33Z"/></svg>

<svg xmlns="http://www.w3.org/2000/svg" viewBox="-600 -400 1200 800" width="1200" height="800" style="background:rgb(255,255,255)"><path style="fill:rgb(101,0,0)" d="M0,88L-65,-52L-178,190z"/><path style="fill:rgb(84,0,0)" d="M279,248L0,-84L0,88z"/><path style="fill:rgb(103,0,0)" d="M0,88L0,-84L-65,-52z"/><path style="fill:rgb(178,0,0)" d="M357,190L99,-35L279,248z"/><path style="fill:rgb(130,0,0)" d="M0,-84L0,-96L-91,-52z"/><path style="fill:rgb(182,0,0)" d="M357,190L130,-52L99,-35z"/><path style="fill:rgb(90,0,0)" d="M279,248L99,-35L0,-84z"/><path style="fill:rgb(130,0,0)" d="M99,-35L0,-96L0,-84z"/><path style="fill:rgb(131,0,0)" d="M0,-84L-91,-52L-65,-52z"/><path style="fill:rgb(150,0,0)" d="M139,-28L0,-269L0,-96z"/><path style="fill:rgb(133,0,0)" d="M99,-35L139,-28L0,-96z"/><path style="fill:rgb(109,0,0)" d="M0,-269L247,-219L0,-314zM-123,-219L0,-269L0,-314z"/><path style="fill:rgb(170,0,0)" d="M0,-96L0,-269L-123,-219zM0,-96L-123,-219L-91,-52z"/><path style="fill:rgb(166,0,0)" d="M0,456L-130,-52L-357,190z"/><path style="fill:rgb(111,0,0)" d="M0,-314L-247,-219L-123,-219z"/><path style="fill:rgb(135,0,0)" d="M-65,-52L-91,-52L48,22z"/><path style="fill:rgb(156,0,0)" d="M139,-28L190,-191L0,-269z"/><path style="fill:rgb(108,0,0)" d="M181,-52L190,-191L139,-28z"/><path style="fill:rgb(137,0,0)" d="M-65,-52L48,22L34,0z"/><path style="fill:rgb(115,0,0)" d="M0,-269L190,-191L247,-219z"/><path style="fill:rgb(109,0,0)" d="M181,-52L247,-219L190,-191z"/><path style="fill:rgb(89,0,0)" d="M0,49L-247,-219L-181,-52z"/><path style="fill:rgb(195,0,0)" d="M102,380L34,0L0,18z"/><path style="fill:rgb(177,0,0)" d="M0,456L0,18L-130,-52z"/><path style="fill:rgb(195,0,0)" d="M102,380L0,18L0,456z"/><path style="fill:rgb(119,0,0)" d="M-247,-219L0,-99L-123,-219z"/><path style="fill:rgb(94,0,0)" d="M0,49L0,-99L-247,-219z"/><path style="fill:rgb(116,0,0)" d="M48,22L0,-99L0,49z"/><path style="fill:rgb(123,0,0)" d="M0,-99L68,-132L-123,-219z"/><path style="fill:rgb(118,0,0)" d="M48,22L68,-132L0,-99z"/></svg>
